dist/assets/img/header/arrow.svg

<svg width="17" height="17" viewBox="0 0 17 17" fill="none" xmlns="http://www.w3.org/2000/svg">
<path d="M9 6C9 5.72386 8.77614 5.5 8.5 5.5C8.22386 5.5 8 5.72386 8 6H9ZM8.14645 12.8536C8.34171 13.0488 8.65829 13.0488 8.85355 12.8536L12.0355 9.67157C12.2308 9.47631 12.2308 9.15973 12.0355 8.96447C11.8403 8.7692 11.5237 8.7692 11.3284 8.96447L8.5 11.7929L5.67157 8.96447C5.47631 8.7692 5.15973 8.7692 4.96447 8.96447C4.7692 9.15973 4.7692 9.47631 4.96447 9.67157L8.14645 12.8536ZM8 6V12.5H9V6H8Z" fill="#474F60"/>
</svg>

<svg width="17" height="17" viewBox="0 0 17 17" fill="none" xmlns="http://www.w3.org/2000/svg"><path d="M9 6a.5.5 0 00-1 0h1zm-.854 6.854a.5.5 0 00.708 0l3.182-3.182a.5.5 0 10-.708-.708L8.5 11.793 5.672 8.964a.5.5 0 10-.708.708l3.182 3.182zM8 6v6.5h1V6H8z" fill="#474F60"/></svg>
